X: 62
T: Speic Seoach
Q: "Slow"
%R: air, waltz
B: "The Hibernian Muse" p.38 #2 - p.39 #1
F: http://imslp.org/wiki/The_Hibernian_Muse_%28Various%29
Z: 2015 John Chambers <jc:trillian.mit.edu>
P: No. LXII.
M: 3/4
L: 1/8
K: G
% - - - - - - - - - - - - - - - - - - - - - - - - - - - - -
V: 1
Bd |\
e4 (e/f/g) | d4 BA | G2 G2 DE | G2G2 DE |\
(GAG)EDE | G2 G2 DG | A2 A2 GA | B2 B2 AG |\
AGABAG | TE2 D2 BA | TG6- | G4 ||
|: Bd |\
e4 (e/f/g) | d4 de | (gag)ede | (gag)ede |\
(gag)ede | g2 g2 eg | a2 a2 ga | b2 b2 ag |\
agabag | Te2 d2 (g/a/b/a/) | Tg6- | g4 :|
% - - - - - - - - - - - - - - - - - - - - - - - - - - - - -
V: 2 clef=bass middle=d
z2 |\
e2 E2 z2 | g2 G2 z2 | e2 E2 z2 | g2 G2 z2 |\
c2 c2 c2 | B2 B2 B2 | A2 A2 A2 | G2 G2 G2 |
c2 c2 c2 | g2 B2 d2 | g2 B2 d2 | g2 G2 || \
|: z2 |\
c'2 c2 z2 | b2 B2 z2 | c'2 c2 z2 | b2 B2 z2 |
c'2 c'2 c'2 | b2 b2 b2 | a2 a2 a2 | g2 g2 g2 |\
c'2 c'2 c'2 | g2 g2 d2 | g2 B2 d2 | g2 G2 :|

%%sep 2 1 500
%%sep 1 1 500

